web/public/images/logo-outline.svg

<svg width="929" height="1001" fill="none" xmlns="http://www.w3.org/2000/svg"><path fill="rgba(255,255,255,0.02)" fill-rule="evenodd" clip-rule="evenodd" d="M386.043 47.242c9.424-4.616 17.893-8.765 24.858-12.267 35.733-17.967 71.465-17.967 107.198 0 7.854 3.95 17.866 8.767 29.088 14.166 39.831 19.164 94.898 45.659 122.776 66.685 19.329 14.578 24.655 26.054 30.219 38.04 4.722 10.173 9.614 20.712 23.38 33.828 29.988 28.569 71.466 62.884 107.198 89.834 24.701 18.631 28.058 58.725 30.728 90.608 1.192 14.239 2.247 26.841 5.005 35.161 4.466 13.475 11.166 35.933 17.866 58.392 6.7 22.459 13.4 44.917 17.867 58.393 6.922 20.885-7.615 47.166-22.823 74.661-4.417 7.984-8.89 16.07-12.91 24.157-8.933 17.967-24.566 51.655-40.2 85.343-15.633 33.688-31.266 67.375-40.199 85.342-9.362 18.83-28.537 22.859-51.097 27.599-20.49 4.306-43.774 9.198-65.034 26.302-44.666 35.934-107.198 80.851-151.864 107.801-44.666 26.951-62.532 26.951-107.198 0-44.666-26.95-107.198-71.867-151.864-107.801-21.26-17.104-44.543-21.996-65.034-26.302-22.56-4.74-41.735-8.769-51.097-27.599-8.933-17.967-24.566-51.654-40.199-85.342-15.633-33.688-31.267-67.376-40.2-85.343-4.02-8.087-8.493-16.173-12.91-24.157-15.208-27.495-29.745-53.776-22.823-74.661 4.467-13.476 11.167-35.934 17.867-58.393 6.7-22.459 13.4-44.917 17.866-58.392 2.758-8.32 3.813-20.922 5.005-35.161 2.67-31.883 6.027-71.977 30.728-90.608 35.733-26.95 89.332-71.867 107.198-89.834 6.624-6.661 10.094-14.426 13.919-22.983 6.492-14.522 14.002-31.326 39.68-48.885 32.853-22.465 88.079-49.517 127.006-68.584Zm65.881 257.724L284.73 190.841c-6.721-4.554-10.51-12.381-9.933-20.519.577-8.137 5.432-15.342 12.729-18.888l166.685-82.779a22.978 22.978 0 0 1 20.074 0l167.193 82.779c7.167 3.527 11.959 10.595 12.611 18.602.652 8.006-2.933 15.766-9.435 20.421l-167.32 114.509a22.891 22.891 0 0 1-12.705 3.966 23.645 23.645 0 0 1-12.705-3.966Zm79.405 54.759c-6.192-4.288-9.897-11.367-9.91-18.935.137-7.432 3.827-14.341 9.91-18.552l138.989-95.061a22.739 22.739 0 0 1 26.934 1.023l107.355 85.85a22.829 22.829 0 0 1 8.613 17.225 22.849 22.849 0 0 1-7.597 17.703L693.186 449.541a22.49 22.49 0 0 1-27.823 1.792l-134.034-91.608ZM195.544 484.726c.706-7.276-2.079-14.454-7.496-19.32l-50.819-45.163a21.992 21.992 0 0 0-21.09-4.99c-7.418 2.03-13.304 7.717-15.627 15.097L70.91 523.493c-2.85 9.057.15 18.946 7.54 24.854a22.613 22.613 0 0 0 25.747 1.758l80.039-47.979c6.378-3.579 10.604-10.082 11.308-17.4Zm281.917-108.624 144.706 99.028c5.765 3.958 9.379 10.386 9.783 17.4a23.112 23.112 0 0 1-7.496 18.68L479.875 640.56a22.778 22.778 0 0 1-15.119 5.758 22.65 22.65 0 0 1-15.119-5.758L305.058 511.21a23.623 23.623 0 0 1-7.623-18.68c.508-7.014 4.154-13.416 9.91-17.4l144.706-99.028a22.739 22.739 0 0 1 25.41 0Zm-353.572-27.124 112.31 100.563a22.742 22.742 0 0 0 27.95 1.791l133.907-91.607c6.445-4.226 10.332-11.446 10.332-19.191 0-7.745-3.887-14.965-10.332-19.192l-138.862-95.061a22.991 22.991 0 0 0-27.061 1.023l-107.355 86.362a22.575 22.575 0 0 0-8.512 17.272 23.366 23.366 0 0 0 7.623 18.04ZM698.522 525.54l114.343 68.449c10.016 5.997 13.911 18.648 9.02 29.299l-60.093 134.596c-3.67 8.274-11.838 13.59-20.836 13.562a21.712 21.712 0 0 1-8.385-1.663l-193.874-78.557c-7.31-2.96-12.578-9.52-13.924-17.338-1.346-7.818 1.423-15.78 7.318-21.045l139.752-124.744a22.488 22.488 0 0 1 26.679-2.559Zm159.825-2.047-29.602-93.143c-2.346-7.391-8.213-13.107-15.626-15.225a22.626 22.626 0 0 0-21.09 4.99l-50.819 45.292c-5.452 4.841-8.244 12.038-7.496 19.319.601 7.249 4.68 13.746 10.926 17.4l80.167 47.979a22.239 22.239 0 0 0 11.561 3.198 22.688 22.688 0 0 0 18.377-9.351 23.032 23.032 0 0 0 3.348-20.459h.254Zm-460.926 129.35c5.867 5.254 8.608 13.197 7.242 20.983-1.376 7.805-6.663 14.338-13.975 17.272l-193.747 78.557c-11.333 4.577-24.232-.676-29.221-11.899L107.5 623.16c-4.67-10.656-.753-23.148 9.147-29.171L230.99 525.54a22.49 22.49 0 0 1 26.68 2.559l139.751 124.744Zm231.353 122.313-155.506-62.948a22.975 22.975 0 0 0-17.024 0l-155.506 62.948c-7.749 3.176-13.191 10.319-14.229 18.68-.928 8.398 2.838 16.623 9.783 21.366l155.505 108.112a22.879 22.879 0 0 0 12.705 4.094 22.507 22.507 0 0 0 12.705-4.094l155.632-108.112c6.919-4.755 10.64-12.989 9.656-21.366-.865-8.275-6.118-15.426-13.721-18.68Z"/></svg>

<svg width="929" height="1001" viewBox="0 0 929 1001" fill="none" xmlns="http://www.w3.org/2000/svg">
  <path fill="rgba(255,255,255,0.02)" fill-rule="evenodd" clip-rule="evenodd" d="M386.043 47.2419C395.467 42.6256 403.936 38.4772 410.901 34.9752C446.634 17.0083 482.366 17.0083 518.099 34.9752C525.953 38.9244 535.965 43.7416 547.187 49.1406C587.018 68.3048 642.085 94.7997 669.963 115.826C689.292 130.404 694.618 141.88 700.182 153.866C704.904 164.039 709.796 174.578 723.562 187.694C753.55 216.263 795.028 250.578 830.76 277.528C855.461 296.159 858.818 336.253 861.488 368.136C862.68 382.375 863.735 394.977 866.493 403.297C870.959 416.772 877.659 439.23 884.359 461.689C891.059 484.148 897.759 506.606 902.226 520.082C909.148 540.967 894.611 567.248 879.403 594.743C874.986 602.727 870.513 610.813 866.493 618.9C857.56 636.867 841.927 670.555 826.293 704.243C810.66 737.931 795.027 771.618 786.094 789.585C776.732 808.415 757.557 812.444 734.997 817.184C714.507 821.49 691.223 826.382 669.963 843.486C625.297 879.42 562.765 924.337 518.099 951.287C473.433 978.238 455.567 978.238 410.901 951.287C366.235 924.337 303.703 879.42 259.037 843.486C237.777 826.382 214.494 821.49 194.003 817.184C171.443 812.444 152.268 808.415 142.906 789.585C133.973 771.618 118.34 737.931 102.707 704.243C87.0735 670.555 71.4403 636.867 62.5071 618.9C58.4865 610.813 54.0136 602.727 49.5972 594.743C34.3886 567.248 19.8515 540.967 26.7744 520.082C31.241 506.606 37.9409 484.148 44.6408 461.689C51.3406 439.23 58.0405 416.772 62.5071 403.297C65.265 394.977 66.32 382.375 67.5122 368.136C70.1816 336.253 73.5386 296.159 98.2398 277.528C133.973 250.578 187.572 205.661 205.438 187.694C212.062 181.033 215.532 173.268 219.357 164.711C225.849 150.189 233.359 133.385 259.037 115.826C291.89 93.3608 347.116 66.3094 386.043 47.2419ZM451.924 304.966L284.73 190.841C278.009 186.287 274.22 178.46 274.797 170.322C275.374 162.185 280.229 154.98 287.526 151.434L454.211 68.6552C460.553 65.5778 467.942 65.5778 474.285 68.6552L641.478 151.434C648.645 154.961 653.437 162.029 654.089 170.036C654.741 178.042 651.156 185.802 644.654 190.457L477.334 304.966C473.579 307.519 469.159 308.899 464.629 308.932C460.105 308.855 455.698 307.479 451.924 304.966ZM531.329 359.725C525.137 355.437 521.432 348.358 521.419 340.79C521.556 333.358 525.246 326.449 531.329 322.238L670.318 227.177C678.563 221.587 689.449 222.001 697.252 228.2L804.607 314.05C809.869 318.223 813.024 324.532 813.22 331.275C813.416 338.018 810.634 344.501 805.623 348.978L693.186 449.541C685.424 456.51 673.943 457.249 665.363 451.333L531.329 359.725ZM195.544 484.726C196.25 477.45 193.465 470.272 188.048 465.406L137.229 420.243C131.546 414.987 123.552 413.095 116.139 415.253C108.721 417.283 102.835 422.97 100.512 430.35L70.9105 523.493C68.0604 532.55 71.0601 542.439 78.4495 548.347C85.839 554.255 96.0833 554.954 104.197 550.105L184.236 502.126C190.614 498.547 194.84 492.044 195.544 484.726ZM477.461 376.102L622.167 475.13C627.932 479.088 631.546 485.516 631.95 492.53C632.432 499.586 629.668 506.473 624.454 511.21L479.875 640.56C475.699 644.269 470.323 646.316 464.756 646.318C459.186 646.328 453.807 644.279 449.637 640.56L305.058 511.21C299.859 506.453 297.06 499.594 297.435 492.53C297.943 485.516 301.589 479.114 307.345 475.13L452.051 376.102C459.742 370.928 469.77 370.928 477.461 376.102ZM123.889 348.978L236.199 449.541C244.02 456.486 255.516 457.222 264.149 451.332L398.056 359.725C404.501 355.499 408.388 348.279 408.388 340.534C408.388 332.789 404.501 325.569 398.056 321.342L259.194 226.281C250.898 220.71 239.991 221.123 232.133 227.304L124.778 313.666C119.513 317.847 116.388 324.187 116.266 330.938C116.047 337.788 118.836 344.387 123.889 348.978ZM698.522 525.54L812.865 593.989C822.881 599.986 826.776 612.637 821.885 623.288L761.792 757.884C758.122 766.158 749.954 771.474 740.956 771.446C738.08 771.453 735.23 770.888 732.571 769.783L538.697 691.226C531.387 688.266 526.119 681.706 524.773 673.888C523.427 666.07 526.196 658.108 532.091 652.843L671.843 528.099C679.222 521.459 690.031 520.422 698.522 525.54ZM858.347 523.493L828.745 430.35C826.399 422.959 820.532 417.243 813.119 415.125C805.703 413.093 797.77 414.97 792.029 420.115L741.21 465.407C735.758 470.248 732.966 477.445 733.714 484.726C734.315 491.975 738.394 498.472 744.64 502.126L824.807 550.105C828.3 552.211 832.297 553.317 836.368 553.303C843.625 553.317 850.452 549.843 854.745 543.952C859.039 538.061 860.282 530.46 858.093 523.493H858.347ZM397.421 652.843C403.288 658.097 406.029 666.04 404.663 673.826C403.287 681.631 398 688.164 390.688 691.098L196.941 769.655C185.608 774.232 172.709 768.979 167.72 757.756L107.5 623.16C102.83 612.504 106.747 600.012 116.647 593.989L230.99 525.54C239.481 520.422 250.29 521.459 257.67 528.099L397.421 652.843ZM628.774 775.156L473.268 712.208C467.8 710.028 461.712 710.028 456.244 712.208L300.738 775.156C292.989 778.332 287.547 785.475 286.509 793.836C285.581 802.234 289.347 810.459 296.292 815.202L451.797 923.314C455.537 925.913 459.958 927.338 464.502 927.408C469.049 927.361 473.477 925.934 477.207 923.314L632.839 815.202C639.758 810.447 643.479 802.213 642.495 793.836C641.63 785.561 636.377 778.41 628.774 775.156Z"/>
</svg>
